src/rounded/icons/fi-rr-gallery.svg

<svg id="Layer_1" height="512" viewBox="0 0 24 24" width="512" xmlns="http://www.w3.org/2000/svg" data-name="Layer 1"><path d="m19 0h-6a5.006 5.006 0 0 0 -5 5v.1a5.009 5.009 0 0 0 -4 4.9v.1a5.009 5.009 0 0 0 -4 4.9v4a5.006 5.006 0 0 0 5 5h6a5.006 5.006 0 0 0 5-5v-.1a5.009 5.009 0 0 0 4-4.9v-.1a5.009 5.009 0 0 0 4-4.9v-4a5.006 5.006 0 0 0 -5-5zm-17 15a3 3 0 0 1 3-3h6a2.988 2.988 0 0 1 2.638 1.6l-3.455 3.463-.475-.479a1.992 1.992 0 0 0 -2.708-.111l-4.621 3.96a2.96 2.96 0 0 1 -.379-1.433zm12 4a3 3 0 0 1 -3 3h-6a2.971 2.971 0 0 1 -1.118-.221l4.406-3.779.476.481a2 2 0 0 0 2.828 0l2.408-2.413zm4-5a3 3 0 0 1 -2 2.816v-1.816a5.006 5.006 0 0 0 -5-5h-5a3 3 0 0 1 3-3h6a3 3 0 0 1 3 3zm4-5a3 3 0 0 1 -2 2.816v-1.816a5.006 5.006 0 0 0 -5-5h-5a3 3 0 0 1 3-3h6a3 3 0 0 1 3 3zm-18 6a1 1 0 1 1 1 1 1 1 0 0 1 -1-1z"/></svg>

<svg id="Layer_1" data-name="Layer 1" xmlns="http://www.w3.org/2000/svg" viewBox="0 0 24 24"><path d="M19,0H13A5.006,5.006,0,0,0,8,5v.1A5.009,5.009,0,0,0,4,10v.1A5.009,5.009,0,0,0,0,15v4a5.006,5.006,0,0,0,5,5h6a5.006,5.006,0,0,0,5-5v-.1A5.009,5.009,0,0,0,20,14v-.1A5.009,5.009,0,0,0,24,9V5A5.006,5.006,0,0,0,19,0ZM2,15a3,3,0,0,1,3-3h6a2.988,2.988,0,0,1,2.638,1.6l-3.455,3.463-.475-.479A1.992,1.992,0,0,0,7,16.473l-4.621,3.96A2.96,2.96,0,0,1,2,19Zm12,4a3,3,0,0,1-3,3H5a2.971,2.971,0,0,1-1.118-.221L8.288,18l.476.481a2,2,0,0,0,2.828,0L14,16.068Zm4-5a3,3,0,0,1-2,2.816V15a5.006,5.006,0,0,0-5-5H6A3,3,0,0,1,9,7h6a3,3,0,0,1,3,3Zm4-5a3,3,0,0,1-2,2.816V10a5.006,5.006,0,0,0-5-5H10a3,3,0,0,1,3-3h6a3,3,0,0,1,3,3ZM4,15a1,1,0,1,1,1,1A1,1,0,0,1,4,15Z"/></svg>
